X:1
T:We Are on Our Journey Home
T:We Are on Our Journey Home
T:Charles Beecher
T:Charles Beecher, 1851
T:Public Domain Courtesy of the Cyber Hymnal™
C:Charles Beecher
Z:Public Domain
Z:Courtesy of the Cyber Hymnal™
%%score ( 1 2 ) ( 3 4 )
L:1/8
Q:1/4=105
M:4/4
K:F
V:1 treble 
V:2 treble 
V:3 bass 
V:4 bass 
V:1
 C>C | [CF]2 [CF]2 [CF]2 [CF]2 | [CF]6 (E>F) | [FA]2 [FA]2 [FA]2 [FA]2 | [EG]6 [FA]>[EB] | %5
w: 1.~We are|on our jour- ney|home, Where *|Christ our Lord is|gone; We shall|
w: 2.~We can|see that dis- tant|home, Though *|clouds rise dark be-|tween; Fai- th|
w: 3.~O ~|glo- ry shin- ing|far From~the *|ne- ver set- ting|sun, O ~|
w: 4.~O ~|ho- ly, heaven- ly|home, O *|rest e- ter- nal|there: Wh- en|
w: 5.~O- ur|hearts are break- ing|now Those *|man- sions fair to|see; O ~|
 [Fc]2 [Fc]2 [Fd]2 [Fc]2 | [Af]6 [FA]>[EG] | F2 [CF]2 [CF]2 [CF]2 | [EG]6 C>C | %9
w: meet a- round His|throne, When He|makes His peo- ple|one, In the|
w: views the ra- diant|dome, And a|lus- ter flash- es|keen From the|
w: trem- bling morn- ing|star, O- ur|jour- ney’s al- most|done, To the|
w: shall the ex- iles|come, Where they|cease from earth- ly|care, In the|
w: Lord, Thy hea- vens|bow, A- nd|raise us up to|Thee, To the|
 (F3 E F2) [CG]>[CF] | ([FA]3 [EG] [FA]2) [Fc]2 | F4 [EG]4 | F6 |] %13
w: new, * * in the|new * * Je-|ru- sa-|lem.|
w: new, * * from the|new * * Je-|ru- sa-|lem.|
w: new, * * to the|new * * Je-|ru- sa-|lem.|
w: new, * * in the|new * * Je-|ru- sa-|lem.|
w: new, * * to the|new * * Je-|ru- sa-|lem.|
V:2
 C>C | x8 | x6 C2 | x8 | x8 | x8 | x8 | F2 x6 | x8 | x8 | x8 | F4 x4 | F6 |] %13
V:3
 [F,A,]>[F,A,] | [F,A,]2 [C,A,]2 [A,,A,]2 [C,A,]2 | [F,A,]6 (A,>B,) | [F,C]2 C2 [A,C]2 [F,C]2 | %4
 [C,C]6 [F,C]>[F,C] | [A,C]2 [A,C]2 B,2 [A,C]2 | [F,C]6 C>B, | [F,A,]2 [A,,A,]2 [C,A,]2 [F,A,]2 | %8
 [C,C]6 z2 | z8 | z6 [A,,F,]>[B,,G,] | [C,A,]2 [C,A,]2 [C,B,]2 [C,B,]2 | [F,A,]6 |] %13
V:4
 x2 | x8 | x6 F,2 | x2 C2 x4 | x8 | x4 B,2 x2 | x6 F,2 | x8 | x8 | x8 | x8 | x8 | x6 |] %13

